.local/share/icons/Gruvbox-Plus-Dark/mimetypes/scalable/text-x-iptables.svg

<svg width="256" height="256" viewBox="0 0 256 256" fill="none" xmlns="http://www.w3.org/2000/svg">
<g opacity="0.4" filter="url(#filter0_f)">
<path d="M55.0839 15.5636H155.608L216.009 75.7129L216.011 224.609C216.011 233.52 208.749 240.737 199.838 240.737H55.0838C46.1734 240.737 39 233.564 39 224.654V31.6474C39 22.737 46.1734 15.5636 55.0838 15.5636H55.0839Z" fill="#282828"/>
</g>
<path d="M55.0839 15H155.608L216.009 75.1493L216.011 224.045C216.011 232.956 208.749 240.174 199.838 240.174H55.0838C46.1734 240.174 39 233 39 224.09V31.0838C39 22.1734 46.1734 15 55.0838 15H55.0839Z" fill="url(#paint0_linear)"/>
<path fill-rule="evenodd" clip-rule="evenodd" d="M155.609 22.9787H55.0839C50.58 22.9787 46.9787 26.5799 46.9787 31.0838V224.09C46.9787 228.594 50.5799 232.195 55.0838 232.195H199.838C204.371 232.195 208.032 228.521 208.032 224.046V75.1493L155.609 22.9787ZM155.608 15H55.0839C46.1735 15 39 22.1734 39 31.0838V224.09C39 233 46.1734 240.174 55.0838 240.174H199.838C208.749 240.174 216.011 232.956 216.011 224.045L216.009 75.1493L155.608 15Z" fill="url(#paint1_linear)"/>
<path d="M112.557 73C110.29 76.257 108.452 87.425 115.012 92.945C122.759 99.556 124.409 107.503 124.409 119.532C124.409 136.456 111.06 150.005 120.441 166.068C94.2072 142.934 120.641 108.214 100.681 94.151C108.578 115.301 80.9212 127.994 81.0002 148.521C80.9372 170.299 96.7532 182.988 115.708 182.945C102.19 177.06 96.0262 159.295 96.7412 149.153C106.248 172.22 120.43 182.996 144.157 182.996C135.02 170.221 133.527 168.602 133.001 160.474C133.048 152.975 135.872 151.301 140.811 141.916C153.236 121.045 147.555 99.976 130.64 90.144C127.198 88.309 126.275 87.794 120.01 85.17C116.399 83.367 112.805 79.45 112.553 73.008L112.557 73ZM154.933 108.352C167.465 125.523 153.193 139.465 146.644 149.982C141.274 158.243 146.444 171.914 152.061 183C152.556 173.63 158.39 167.168 163.112 163.833C177.572 152.181 178.032 136.947 170.364 123.393C165.548 115.957 161.289 113.545 154.933 108.356" fill="url(#paint2_linear)"/>
<path opacity="0.25" d="M155.608 17V61.2306C155.608 70.141 162.867 77.1605 171.777 77.1605L216.009 77.1493V75.1493L155.608 17Z" fill="#282828"/>
<path d="M155.608 15V59.2306C155.608 68.141 162.867 75.1605 171.777 75.1605L216.009 75.1493L155.608 15Z" fill="url(#paint3_linear)"/>
<defs>
<filter id="filter0_f" x="23.8778" y="0.441412" width="207.255" height="255.418" filterUnits="userSpaceOnUse" color-interpolation-filters="sRGB">
<feFlood flood-opacity="0" result="BackgroundImageFix"/>
<feBlend mode="normal" in="SourceGraphic" in2="BackgroundImageFix" result="shape"/>
<feGaussianBlur stdDeviation="7.5611" result="effect1_foregroundBlur"/>
</filter>
<linearGradient id="paint0_linear" x1="39" y1="15" x2="39" y2="240.174" gradientUnits="userSpaceOnUse">
<stop offset="1e-07" stop-color="#504945"/>
<stop offset="1" stop-color="#3c3836"/>
</linearGradient>
<linearGradient id="paint1_linear" x1="139.896" y1="15" x2="142.761" y2="242.412" gradientUnits="userSpaceOnUse">
<stop stop-color="#fabd2f"/>
<stop offset="1" stop-color="#d79921"/>
</linearGradient>
<linearGradient id="paint2_linear" x1="134.747" y1="73" x2="136.03" y2="184.096" gradientUnits="userSpaceOnUse">
<stop stop-color="#fabd2f"/>
<stop offset="1" stop-color="#d79921"/>
</linearGradient>
<linearGradient id="paint3_linear" x1="190.036" y1="15" x2="190.636" y2="75.7622" gradientUnits="userSpaceOnUse">
<stop stop-color="#fabd2f"/>
<stop offset="1" stop-color="#d79921"/>
</linearGradient>
</defs>
</svg>

<svg width="256" height="256" fill="none" version="1.1" viewBox="0 0 256 256" xmlns="http://www.w3.org/2000/svg">
  <path d="m55.08 15h100.5l60.4 60.15 2e-3 148.9c0 8.911-7.262 16.13-16.17 16.13h-144.8c-8.91 0-16.08-7.174-16.08-16.08v-193c0-8.91 7.173-16.08 16.08-16.08h1e-4z" fill="url(#paint0_linear)"/>
  <path d="m155.6 22.98h-100.5c-4.504 0-8.105 3.601-8.105 8.105v193c0 4.504 3.601 8.105 8.105 8.105h144.8c4.533 0 8.194-3.674 8.194-8.149v-148.9l-52.42-52.17zm-1e-3 -7.979h-100.5c-8.91 0-16.08 7.173-16.08 16.08v193c0 8.91 7.173 16.08 16.08 16.08h144.8c8.911 0 16.17-7.218 16.17-16.13l-2e-3 -148.9-60.4-60.15z" clip-rule="evenodd" fill="url(#paint1_linear)" fill-rule="evenodd"/>
  <path d="m112.6 73c-2.267 3.257-4.105 14.42 2.455 19.94 7.747 6.611 9.397 14.56 9.397 26.59 0 16.92-13.35 30.47-3.968 46.54-26.23-23.13 0.2-57.85-19.76-71.92 7.897 21.15-19.76 33.84-19.68 54.37-0.063 21.78 15.75 34.47 34.71 34.42-13.52-5.885-19.68-23.65-18.97-33.79 9.507 23.07 23.69 33.84 47.42 33.84-9.137-12.78-10.63-14.39-11.16-22.52 0.047-7.499 2.871-9.173 7.81-18.56 12.42-20.87 6.744-41.94-10.17-51.77-3.442-1.835-4.365-2.35-10.63-4.974-3.611-1.803-7.205-5.72-7.457-12.16l4e-3 -8e-3zm42.38 35.35c12.53 17.17-1.74 31.11-8.289 41.63-5.37 8.261-0.2 21.93 5.417 33.02 0.495-9.37 6.329-15.83 11.05-19.17 14.46-11.65 14.92-26.89 7.252-40.44-4.816-7.436-9.075-9.848-15.43-15.04" fill="url(#paint2_linear)"/>
  <path d="m155.6 17v44.23c0 8.91 7.259 15.93 16.17 15.93l44.23-0.0112v-2l-60.4-58.15z" fill="#282828" opacity=".25"/>
  <path d="m155.6 15v44.23c0 8.91 7.259 15.93 16.17 15.93l44.23-0.0112-60.4-60.15z" fill="url(#paint3_linear)"/>
  <defs>
    <linearGradient id="paint0_linear" x1="39" x2="39" y1="15" y2="240.2" gradientUnits="userSpaceOnUse">
      <stop stop-color="#504945" offset="1e-7"/>
      <stop stop-color="#3c3836" offset="1"/>
    </linearGradient>
    <linearGradient id="paint1_linear" x1="139.9" x2="142.8" y1="15" y2="242.4" gradientUnits="userSpaceOnUse">
      <stop stop-color="#fabd2f" offset="0"/>
      <stop stop-color="#d79921" offset="1"/>
    </linearGradient>
    <linearGradient id="paint2_linear" x1="134.7" x2="136" y1="73" y2="184.1" gradientUnits="userSpaceOnUse">
      <stop stop-color="#fabd2f" offset="0"/>
      <stop stop-color="#d79921" offset="1"/>
    </linearGradient>
    <linearGradient id="paint3_linear" x1="190" x2="190.6" y1="15" y2="75.76" gradientUnits="userSpaceOnUse">
      <stop stop-color="#fabd2f" offset="0"/>
      <stop stop-color="#d79921" offset="1"/>
    </linearGradient>
  </defs>
</svg>
